!!!ONB: MCCC : IJH0419_02 : Extracted Monophonic Melody
!!!COM: Haydn, Joseph
!!!OPR: String Quartet in C major
!!!OMV: 2
!!!SCT: Hob.III:45 ; Op.50 No.2
!!!ODT: 1787///
**kern
*thru
*k[b-]
*F:
*clefG
*M4/4
=1
8c
8r
8c
8r
8c
8r
8e
8r
=2
8f
8r
8c
8r
8A
4.r
=3
4r
8c
8r
8f
8r
8g
8r
=4
8a
8r
8c
8r
8A
4.r
=5
4r
8d
8r
8d
8r
8d
8r
=6
4r
8c
8r
8c
8r
8f
8r
=7
8d
8r
8g
8r
8f
8r
8e
8r
=8
8f
3..r
24r
4cc
=9
2.ff
8.gg
16aa
=10
4ff
4.r
8cc
8ff
8aa
=11
3..ccc[
24ccc]
8bb
8.bb-
16ccc
=12
4aa
4.r
8ff
8aa
8ccc
=13
8ccc#
16eee
16ddd
4ddd
32ff
32gg-
32gg
32aa-
32aa
32bb-
32bb
32ccc
32ccc#
32ddd
32eee-
32eee
16fff
16ddd
=14
16bb
16ccc
16ddd
16ccc
4ccc
32bb
32ccc
32bb
32ccc
32bb
32ccc
32bb
32ccc
8ccc
16bb-
16aa
=15
16gg
16ddd
16ccc#
16ccc
16bb
16bb-
16aa
32bb-
32gg
4ff
16.gg
32ff
16.gg
32aa
=16
4ff
2r
4cc
=17
2.aa
8.gg
16aa
=18
2ff
4r
4ff
=19
8A-
8G
6..fff[
48fff]
16eee
16ddd
16ccc
16bb
16aa
16gg
16ff
=20
4ff
4ee
8r
8gg
8gg
8ccc
=21
8gg#
16bb
16aa
4.aa
16gg
16ff
16ee
16dd
16ee
16cc
=22
1gg
=23
1gg
=24
1gg
=25
1gg
=26
2gg
4..ccc
16ddd
=27
8bb
4r
16.ccc
32ddd
8bb
16.ccc
32ddd
8bb
16.ccc
32ddd
=28
4bb
2fff
4eee
=29
32ddd
32ccc#
32eee
32ddd
32fff
32eee
32ddd
32ccc#
32ddd
32ccc#
32eee
32ddd
32fff
32eee
32ddd
32ccc#
32ddd
32ccc#
32eee
32ddd
32fff
32eee
32ddd
32ccc#
32ddd
32ccc#
32ddd
32eee
32fff
32ddd
32fff
32ddd
=30
16ccc
16ggg
16ggg
16ggg
8ggg
32fff
32eee
32ddd
32ccc
2ddd
=31
2..ccc
16bb-
16aa
=32
2.ff#[
16ff#]
16ff#
16gg
16aa
=33
2.bb-[
16bb-]
16bb-
16ccc
16ddd
=34
2.ee[
16ee]
16ee
16ff
16gg
=35
2ff
2b
=36
2.cc
16dd-
16dd
16ee-
16ee
=37
2.ff
8.gg
16aa
=38
4ff
4r
32r
32A
32B-
32c
32d
32e
32f
32g
32a
32b-
32cc
32dd
32ee
32ff
32gg
64aa
64bb-
=39
3..ccc[
24ccc]
8bb
8.bb-
16ccc
=40
4aa
4.r
8ff
8aa
8ccc
=41
2eee-[
16eee-]
16ddd
16ccc
16bb-
16aa
16gg
16ff
16ee-
=42
16ee-
16dd
16cc#
16dd
6..ddd[
48ddd]
16ccc
16bb-
16aa
16aa
16gg
16aa
16ff
=43
1ccc
=44
1ccc
=45
1ccc
=46
1ccc
=47
2ccc
4..ccc
16ddd
=48
8bb-
6fff
24eee-
24ddd
24ccc
24bb-
24aa
24gg
24ff#
24aa
24gg
24bb-
24aa
24ccc
24bb-
24ccc#
24ddd
24bb-
24gg
=49
24ff
24ee
24ddd
24ccc
24bb-
24aa
24gg
24ff
24ee
24gg
24bb-
24ddd
24ccc
24bb-
24aa
24gg
24ff
24ee
24gg
24ff
24aa
24gg
24bb-
24aa
=50
24ccc
24bb-
24aa
24gg
24bb-
24aa
24gg
24ff
24ee
24dd
24cc
24b-
24a
24cc
24b-
24dd
24cc
24ff
24ee
24gg
24ff
24aa
24ff
24cc
=51
24dd
24f#
24g
24a
24b-
24f#
24g
24a
24b-
24cc#
24dd
24a
24b-
24ff#
24gg
24aa
24bb-
24ff#
24gg
24bb-
24ff#
24gg
24bb-
24gg
=52
24ff
24ccc
24ccc
24ccc
24bb
24bb-
24aa
24fff
24fff
24fff
24ccc
24aa
2gg
=53
24ff
24aa
24gg
24ff
24ee
24dd
24cc
24b
24a
24g
24a
24f
24e
24g
24b-
24cc
24ee
24gg
24bb-
24gg
24ee
24cc
24b-
24g
=54
4e
4r
4..b-
16cc
=55
4a
4r
6..g[
48g]
16g
16b-
32r
32dd
=56
4f
4r
4g
8.r
16f
=57
4f
4r
4..b-
16cc
=58
4a
4r
24f#
24g
24a-
24a
24b-
24b
24cc
24cc#
24ee
24dd
24b-
24g
=59
4f
4r
4g
8.r
16f
=60
4f
2.r
==
*-
